X:1
T:Luci serene à dio
T:Luci serene à dio
T:Piero Benedetti
T:Source : Musische di Piero Benedetti---Fiorenza---Heredes di C.Marescotti---1611. Editor : André Vierendeels (23/05/15).
T:S1
T:Notes : Original clefs : C1, F4 Editorial accidentals above the staff Figures in BC are notated in original print b.5: S has half-note value for c-sharp in source
C:Piero Benedetti
%%score 1 2
L:1/8
Q:1/4=76
M:4/4
K:C
V:1 treble nm="Soprano     1 + 2" snm="S"
V:2 bass nm="BC" snm="BC"
V:1
 A6 A2 | z2 A2 c4 | c4 z2 e2 | ^G4 G4 | z2 e2 ^c2 c2 | d>e d>e f4- | f2 ed c4- | %7
w: Lu- ci|se- re-|ne à|di- o,|à di- o|fiam- * * * *|* me del cor|
 c2 G2 GA/B/ c/d/e/f/ | g3 A A4 | G8 | z2 B2 ^G4 | z2 e2 ^c4 | d6 dA | _B4 A/A/A/A/ A/B/c | %14
w: _ sa- et- * * * * * *|* te'ar- den-|ti,|al- men,|al- men|gra- vi- te'ac-|cen- * * * * * * *|
 A4 z2 G2 | G3 G A3 E | ^F4 z2 c2 | c3 d d3 A | _B4 z2 F2- | F2 F4 z A | E8 | D8 ||"^S2" _B4 B4 | %23
w: ti, as-|col- ta per pie-|ta, as-|col- ta per pie-|ta, don-|* na s'io|mo-|ro.|Al- tro|
 z d _B>A B4 | _B4 _e4- | e2 AA A4- | A2 _B/c/d A4 | G8 | z ccc c4- | c2 z d A4 |[M:2/4] A4 |: e4 | %32
w: non h'al cor mi-|o, che|_ di mo- rir|_ de- * * si-|o,|è nel mo- rir|_ gl'a- van-|za.|Dol-|
[M:4/4] ^GGGG B4- | B2 c4 de | B8 | A4 A4 | ^CCCC E4- | E2 F4 GA | E8 | D8!fine! ||"^S2" _B4 B4 | %41
w: cis- si- ma d'A- mor|_ se d'es- pe-|ran-|za, dol-|cis- si- ma d'A- mor|_ se d'es- pe-|ran-|za.|Al- tro|
 z d _B>A B4 | _B4 _e4- | e2 AA A4- | A2 _B/A/c/B/ A4 | G8 | z ccc c4- | c2 d/4c/4B/4A/4G A4 | %48
w: non h'al cor mi-|o, che|_ di mo- rir|_ de- * * * si-|o,|è nel mo- rir|_ gl'a- * * * * van-|
[M:2/4]"^al fine" A4 :| %49
w: za.|
V:2
 D,8 | D,4 A,,4 | A,,8 |"^#" E,8 | ^C,4 A,,4 | D,8 | A,,8 | B,,4 C,4- |"^4""^#" C,4 D,2 D,2 | %9
 G,,8 | G,4 E,4 | ^C,4 A,,4 | ^F,,8 | G,,8 |"^#" D,4 B,,4 | C,4 ^C,4 | D,4 E,4 | F,4 ^F,4 | %18
 G,4 D,4- |"^b" D,D, C,/B,,/A,,/G,,/ F,,4 |"^#""^4" A,,4 A,,4 |"^#" D,8 || G,,8 | G,,8 | G,,4 C,4 | %25
"^#" C,6 D,2 |"^#""^4""^#" D,2 D,4 D,2 | G,,8 | E,4 F,4 |"^#" _E,4 D,4 |[M:2/4]"^#" D,4 |: A,,4 | %32
[M:4/4]"^#" E,8 |"^#""^#" E,4 D,2 ^C,2 |"^#""^4" E,4 E,4 |"^#" A,,8 |"^#" A,,8 | A,,4 G,,2 ^F,,2 | %38
"^4""^#" A,,4 A,,4 |"^#" D,8 || G,,8 | G,,8 | G,,4 C,4 |"^#""^b" C,6 D,2 | %44
"^#""^4""^#" D,2 D,4 D,2 | G,,8 | E,4 F,4 |"^#" _E,4 D,4 |[M:2/4]"^#" D,4 :| %49

